packages/tokens/icons/moneyCircleArrow/size16Px.svg

<svg viewBox="0 0 16 16" fill="none" xmlns="http://www.w3.org/2000/svg" width="1em" height="1em"><path d="M9.5 6.38462V6.25275V6.25275C9.5 5.83702 9.16298 5.5 8.74725 5.5H7.13462C6.50798 5.5 6 6.00798 6 6.63462V6.63462C6 7.26125 6.50798 7.76923 7.13462 7.76923H8.46274C9.21682 7.76923 9.82812 8.38053 9.82812 9.13462V9.13462C9.82812 9.8887 9.21682 10.5 8.46274 10.5H7.08242C6.48461 10.5 6 10.0154 6 9.41758V9.41758V9.15385" stroke="currentColor" stroke-linecap="round"/><path d="M8 4L8 5" stroke="currentColor" stroke-linecap="round"/><path d="M8 11V12" stroke="currentColor" stroke-linecap="round"/><path d="M3.48283 12.6374L3.84099 12.2885L3.48283 12.6374ZM3.36761 4.54287C3.53444 4.32281 3.49129 4.00918 3.27124 3.84236C3.05118 3.67553 2.73756 3.71868 2.57073 3.93873L3.36761 4.54287ZM11.9743 13.5553C12.19 13.383 12.2252 13.0683 12.0528 12.8526C11.8805 12.6369 11.5659 12.6017 11.3501 12.7741L11.9743 13.5553ZM1.325 3.91435C1.06632 4.011 0.934975 4.29905 1.03163 4.55773C1.12828 4.81641 1.41633 4.94775 1.675 4.8511L1.325 3.91435ZM3.04359 3.80599L3.51485 3.6389C3.47004 3.51254 3.37637 3.40947 3.25486 3.35282C3.13335 3.29617 2.99418 3.29069 2.86859 3.33761L3.04359 3.80599ZM3.13415 5.55766C3.22643 5.81792 3.51223 5.9541 3.7725 5.86183C4.03276 5.76955 4.16894 5.48375 4.07667 5.22348L3.13415 5.55766ZM12.5172 3.36261L12.159 3.7115L12.5172 3.36261ZM12.6324 11.4571C12.4656 11.6772 12.5087 11.9908 12.7288 12.1576C12.9488 12.3245 13.2624 12.2813 13.4293 12.0613L12.6324 11.4571ZM4.0257 2.44467C3.80996 2.61703 3.77479 2.93165 3.94715 3.1474C4.11952 3.36314 4.43414 3.39831 4.64988 3.22595L4.0257 2.44467ZM14.675 12.0856C14.9337 11.989 15.065 11.7009 14.9684 11.4423C14.8717 11.1836 14.5837 11.0522 14.325 11.1489L14.675 12.0856ZM12.9564 12.194L12.4852 12.3611C12.53 12.4875 12.6236 12.5905 12.7451 12.6472C12.8667 12.7038 13.0058 12.7093 13.1314 12.6624L12.9564 12.194ZM12.8658 10.4423C12.7736 10.1821 12.4878 10.0459 12.2275 10.1382C11.9672 10.2305 11.8311 10.5162 11.9233 10.7765L12.8658 10.4423ZM3.84099 12.2885C1.78271 10.1756 1.6231 6.84396 3.36761 4.54287L2.57073 3.93873C0.532525 6.62722 0.71535 10.513 3.12468 12.9863L3.84099 12.2885ZM11.3501 12.7741C9.11925 14.5563 5.89399 14.396 3.84099 12.2885L3.12468 12.9863C5.53927 15.465 9.34465 15.6562 11.9743 13.5553L11.3501 12.7741ZM1.675 4.8511L3.21859 4.27436L2.86859 3.33761L1.325 3.91435L1.675 4.8511ZM2.57233 3.97307L3.13415 5.55766L4.07667 5.22348L3.51485 3.6389L2.57233 3.97307ZM12.159 3.7115C14.2173 5.82443 14.3769 9.15604 12.6324 11.4571L13.4293 12.0613C15.4675 9.37278 15.2846 5.48703 12.8753 3.01372L12.159 3.7115ZM4.64988 3.22595C6.88075 1.44366 10.106 1.60397 12.159 3.7115L12.8753 3.01372C10.4607 0.535003 6.65535 0.343786 4.0257 2.44467L4.64988 3.22595ZM14.325 11.1489L12.7814 11.7256L13.1314 12.6624L14.675 12.0856L14.325 11.1489ZM13.4277 12.0269L12.8658 10.4423L11.9233 10.7765L12.4852 12.3611L13.4277 12.0269Z" fill="currentColor"/></svg>

<svg xmlns="http://www.w3.org/2000/svg" fill="none" viewBox="0 0 16 16" width="1em" height="1em"><path stroke="currentColor" stroke-linecap="round" d="M9.5 6.385v-.132 0a.753.753 0 0 0-.753-.753H7.135C6.508 5.5 6 6.008 6 6.635v0c0 .626.508 1.134 1.135 1.134h1.328c.754 0 1.365.612 1.365 1.366v0c0 .754-.611 1.365-1.365 1.365h-1.38A1.082 1.082 0 0 1 6 9.418v0-.264M8 4v1m0 6v1"/><path fill="currentColor" d="m3.483 12.637.358-.348-.358.348Zm-.115-8.094a.5.5 0 1 0-.797-.604l.797.604Zm8.606 9.012a.5.5 0 1 0-.624-.78l.624.78ZM1.325 3.915a.5.5 0 1 0 .35.936l-.35-.937Zm1.719-.109.47-.167a.5.5 0 0 0-.645-.301l.175.468Zm.09 1.752a.5.5 0 0 0 .943-.335l-.943.335Zm9.383-2.195-.358.349.358-.35Zm.115 8.094a.5.5 0 0 0 .797.604l-.797-.604ZM4.026 2.445a.5.5 0 0 0 .624.781l-.624-.781Zm10.649 9.64a.5.5 0 1 0-.35-.936l.35.937Zm-1.719.109-.47.167a.5.5 0 0 0 .645.301l-.175-.468Zm-.09-1.752a.5.5 0 1 0-.943.335l.943-.335ZM3.84 12.29c-2.058-2.113-2.218-5.445-.473-7.746L2.57 3.94c-2.038 2.688-1.856 6.574.554 9.047l.716-.697Zm7.51.485a5.578 5.578 0 0 1-7.51-.485l-.716.697a6.578 6.578 0 0 0 8.85.57l-.625-.782ZM1.674 4.851l1.544-.577-.35-.936-1.544.576.35.937Zm.897-.878.562 1.585.943-.335-.562-1.584-.943.334Zm9.587-.261c2.058 2.112 2.218 5.444.473 7.745l.797.604c2.038-2.688 1.856-6.574-.554-9.047l-.716.698Zm-7.51-.486a5.578 5.578 0 0 1 7.51.486l.716-.698a6.578 6.578 0 0 0-8.85-.57l.625.782Zm9.676 7.923-1.544.577.35.936 1.544-.576-.35-.937Zm-.897.878-.562-1.585-.943.335.562 1.584.943-.334Z"/></svg>
